!!!COM: Beethoven, Ludwig van
!!!CDT: 1770///-1827///
!!!OTL: Piano Sonata no. 4 in E-flat major
!!!OTP: grand sonata
!!!ODE: a Madame la Comtesse Babette de Keglevics
!!!OMD: Largo, con gran expressione
!!!OPS: 7
!!!OMV: 2
**kern	**kern	**dynam
*staff2	*staff1	*staff1/2
*Ipiano	*Ipiano	*Ipiano
*clefF4	*clefG2	*
*k[]	*k[]	*k[]
*C:	*C:	*C:
*M3/4	*M3/4	*M3/4
*MM44	*MM44	*MM44
=1-	=1-	=1-
4CC 4GG (<4C	4G< 4c (>4e	p
8BBB 8GG 8BB)	8G< 8d 8f)	.
8r	8r	.
4r	4r	.
=2	=2	=2
*^	*	*
4G	4BBB 4GG ((4BB	(8.gL	.
.	.	16dJk	.
8G	8CC 8GG 8C))	8e)	.
8r	8r	8r	.
4r	4r	4r	.
*v	*v	*	*
=3	=3	=3
(<4CC 4C	4E< 4G 4c (>4e	.
8FFF) 8FF#	8C< 8A 8d)	.
8r	8r	.
4r	4r	.
=4	=4	=4
*^	*	*
4D	4FFF# (4FF#	(8.dL	.
.	.	16AJk	.
2D 2G	2FFFn 2FFn)	4.c)	>
.	.	8B	.
*v	*v	*	*
=5	=5	=5
(<4EE	4E< 4G< (>4c	.
4DD 4D	4F< 4G< 4B 4d	.
4CC 4C)	4G< 4c 4e)	.
=6	=6	=6
*^	*	*
2A/	2.FFF 2.FF	4G< (>4e	.
.	.	4F< 4d	.
4ryy	.	4E< 4A< 4c)	.
!!LO:LB:g=original
=7	=7	=7	=7
4A	2GGG 2GG	[2D [2B	.
8GL	.	.	.
8A-	.	.	.
8G	4GGG 4GG	8D] 8BL]	.
8D 8FJ	.	8BJ	.
=8	=8	=8	=8
(4GG	4.CC	4F 4B (4d	.
8C)	.	8E 8c)	.
8r	8r	8r	.
4r	4r	8.r	.
.	.	16c	.
*v	*v	*	*
=9	=9	=9
4r	(8.gL	.
.	16f#Jk)	<
4AA 4D 4A	4c 4f# 4dd	.
4AA 4D 4A	4c 4f# 4dd	>
=10	=10	=10
2GG 2D 2B	4d 4g 4b 4dd	.
.	(8.ggL	>
.	16bJk	.
4r	16ccLL	.
.	16cc#	.
.	16ee	.
.	16ddJJ)	.
=11	=11	=11
4r	(8.gL	p
.	16f#Jk)	<
4AA 4A	4c 4f# 4dd	.
4AA 4D 4A	4c 4f# 4dd	>
=12	=12	=12
2GG 2D 2B	4d 4g 4b 4dd	.
.	(8.bbL	.
.	16ggJk	.
4r	32ff#LLL	p
.	32gg	.
.	32aa	.
.	32ggJJJ	.
.	32cc#LLL	.
.	32dd	.
.	32ee	.
.	32ddJJJ)	.
!!LO:LB:g=original
=13	=13	=13
*	*^	*
4r	(8.gL	4r	.
.	16f#Jk)	.	<
4AA 4D 4A	8dd	4c 4f#	.
.	4dd	.	.
4AA- 4D 4A-	.	4c 4fn	.
.	[8dd	.	.
*	*v	*v	*
=14	=14	=14
8GG 8BB 8D 8F 8G	8dd]	f
8r	[8ff)	.
8G 8B 8d 8f	16ff'LL]	.
.	32r	.
.	(32eek	.
8r	16dd')	.
.	32r	.
.	(32ccJJk	.
4r	16b'LL)	.
.	32r	.
.	(32ak	.
.	16g')	.
.	32r	.
.	32fJJk	.
=15	=15	=15
4CC (4C	4G (4e	pp
8BBB 8D)	8G 8f)	.
8r	8r	.
4r	4r	.
=16	=16	=16
*	*^	*
4BBB 4GG (4BB	(8.gL	4G	.
.	16dJk	.	.
8CC 8GG 8C)	8e)	8G	.
8r	8r	4.r	.
4r	4r	.	.
=17	=17	=17	=17
*^	*	*	*
4r	4CC# 4AA 4C#	(8.aL	4A	.
.	.	16eJk	.	.
8r	8DD 8D	8.fL)	8A	.
8F [8B-	8r	.	4.r	.
.	.	(32b-LL	.	.
.	.	32aJJJ	.	.
8B-L]	4E 4G	8.gL)	.	f
[8cnJ	.	.	.	.
.	.	(32ccLL	.	.
.	.	32b-JJJ	.	.
*	*	*v	*v	*
!!LO:LB:g=original
=18	=18	=18	=18
8cL]	(8F [8AL	8.aL)	.
[8dJ	8F# 8AJ]	.	.
.	.	(32ddLL	.
.	.	32ccJJJ	.
8B 8d]	8GL	8bn)	.
4d	8G#) 8BJ	4f (4ff	.
.	4A	.	.
8c	.	8e 8ee)	.
=19	=19	=19	=19
*	*	*^	*
4F#	2r	8r	4c 4d	pp
.	.	16r	.	.
.	.	16a	.	.
4G	.	8..gL	4c 4e	.
.	.	32gkk	.	.
4GGG 4GG	4Fn	8..g	4B 4d	.
.	.	32gJkk	.	.
*	*	*v	*v	*
=20	=20	=20	=20
4E 4G	4BBB- 4BB-	4c#	.
8r	8r	8r	.
16E'' 16G''	16AAA 16AA	16c#`	ff
16r	16r	16r	.
16F 16A	16DD 16AA 16D	16d	.
16r	16r	16r	.
16E'' 16A''	16CC# 16AA 16C#	16e`	.
16r	16r	16r	.
=21	=21	=21	=21
4.r	4r	4r	.
.	8r	8r	.
16E 16A	16CC#'' 16AA'' 16C#''	16e	ff
16r	16r	16r	.
16F 16A	16DD'' 16AA'' 16D''	16d 16f	.
16r	16r	16r	.
16G	16CCn 16Cn	16c 16e 16g	.
16r	16r	16r	.
*v	*v	*	*
=22	=22	=22
4r	4r	.
8r	8r	.
(8CC 8CL	8G 8c 8e 8gL	pp
8FF 8C 8F	8A 8c 8f 8a	.
8GG) 8C 8GJ	8c 8e 8gJ	.
!!LO:LB:g=original
=23	=23	=23
*^	*^	*
4AA 4C 4A	2r	4r	4c 4d 4f#	.
4GG 4C 4G	.	8..gL	4c 4e	.
.	.	32gkk	.	pp
4GGG 4GG	4Fn	8..g	4B 4d	.
.	.	32gJkk	.	.
*v	*v	*	*	*
*	*v	*v	*
=24	=24	=24
8.CC 8.CL	8.E 8.G 8.cL	.
(16CJk	(16cJk	.
16BBLL	16BLL	.
16C	16c	.
16BB	16B	.
16CJJ	16cJJ	.
16E-LL	16e-LL	>
16D-	16d-	.
16C	16c	.
16BB-JJ)	16B-JJ)	.
=25	=25	=25
16AAA-'LL	4.E- 4.A- 4.c 4.e-	.
16AA-'	.	.
16C'	.	.
16AA-'JJ	.	.
16AAA-'LL	.	.
16AA-'	.	.
16C'	8E- 8A- 8c 8e-L	.
16AA-'JJ	.	.
16AAA-'LL	8E- 8A- 8c 8e-	.
16AA-'	.	.
16C'	8A- 8c 8e- 8a-J	.
16AA-'JJ	.	.
=26	=26	=26
*	*^	*
16BBB-'LL	4A- (4a-	2d- 2e-	.
16BB-'	.	.	.
16D-'	.	.	.
16BB-'JJ	.	.	.
16BBB-'LL	4G 4g)	.	.
16BB-'	.	.	.
16D-'	.	.	.
16BB-'JJ	.	.	.
16CC'LL	4r	8..An 8..e- 8..g- 8..anL	.
16C'	.	.	.
16E-'	.	.	.
16C'JJ	.	.	.
.	.	32A 32e- 32g- 32aJkk	.
*	*v	*v	*
!!LO:LB:g=original
=27	=27	=27
16DD-LL	4An [4f 4an	.
16D-	.	.
16F	.	.
16D-JJ	.	.
16DD-LL	8..B- 8..f] 8..b-L	.
16D-	.	.
16F	.	.
16D-JJ	.	.
.	32B- 32b-Jkk	.
16EE-LL	8..d- 8..e- 8..b- 8..dd-L	.
16E-	.	.
16G	.	.
16E-JJ	.	.
.	32d- 32e- 32gJkk	.
=28	=28	=28
16AA-LL	4d- [4e- (4b-	.
16E-	.	.
16G	.	.
16E-JJ	.	.
16AA-LL	8c 8e-] 8a-)	.
16A-	.	.
16C	8r	.
16cJJ	.	.
16AA-LL	4r	.
16A-	.	.
16FF	.	.
16FJJ	.	.
=29	=29	=29
16EEnLL	4.c 4.en 4.g 4.cc	<
16En	.	.
16G	.	.
16EJJ	.	.
16EELL	.	.
16E	.	.
16GG	8c' 8e' 8g' (8cc'L	.
16GJJ	.	.
16EELL	8c' 8e' 8g' 8cc'	.
16E	.	.
16CC	8c 8e 8g 8ccJ)	.
16CJJ	.	.
=30	=30	=30
16BBB-LL	4en 4g 4dd- (4een	.
16BB-	.	.
16D-	.	.
16BB-JJ	.	.
16AAA-LL	8f 8a- 8cc 8ff)	.
16AA-	.	.
16CC	8r	.
16CJJ	.	.
16AAA-LL	8r	.
16AA-	.	.
16FFF	16.r	.
16FFJJ	.	.
.	32F 32f	.
!!LO:LB:g=original
=31	=31	=31
16DD-LL	8..G 8..f 8..gL	.
16D-	.	.
16BBBn	.	.
16BBnJJ	.	.
.	32G 32f 32gJkk	.
16CCLL	8..A- 8..c 8..f 8..a-L	.
16C	.	.
16F	.	.
16CJJ	.	.
.	32A- 32c 32f 32a-Jkk	.
16CCLL	8..B- 8..c 8..e 8..b-L	.
16C	.	.
16E	.	.
16CJJ	.	.
.	32B- 32c 32e 32gJkk	.
=32	=32	=32
(16FFLL	4A- 4c 4f	pp
16F	.	.
16GG-	.	.
16G-JJ	.	.
16GGnLL	4r	.
16Gn	.	.
16AA-	.	.
16A-JJ	.	.
16GG-LL	4r	.
16G-	.	.
16EE-	.	.
16E-JJ)	.	.
=33	=33	=33
16DD-'LL	4.A- 4.d- 4.f 4.a-	.
16D-'	.	.
16F'	.	.
16D-'JJ	.	.
16DD-'LL	.	.
16D-'	.	.
16F'	8A- 8d- 8f 8a-L	<
16D-'JJ	.	.
16DD-'LL	8A- 8d- 8f 8a-	.
16D-'	.	.
16F'	8d- 8f 8a- 8dd-J	.
16D-'JJ	.	.
=34	=34	=34
*	*^	*
16EE-LL	4d- (4dd-	2g- 2a-	>
16E-	.	.	.
16G-	.	.	.
16E-JJ	.	.	.
16EE-LL	4c 4cc)	.	.
16E-	.	.	.
16G-	.	.	.
16E-JJ	.	.	.
16FFLL	4r	8..dn 8..a- 8..cc- 8..ddnL	f
16F	.	.	.
16A-	.	.	.
16FJJ	.	.	.
.	.	32d 32a- 32cc- 32ddJkk	.
!!LO:LB:g=original
=35	=35	=35	=35
16GG-LL	4d (4dd	2b-	.
16G-	.	.	.
16B-	.	.	.
16G-JJ	.	.	.
16GG-LL	4e- 4ee-)	.	.
16G-	.	.	.
16B-	.	.	.
16G-JJ	.	.	.
16GGnLL	8..en 8..b- 8..dd- 8..eenL	4r	<
16Gn	.	.	.
16B-	.	.	.
16GJJ	.	.	.
.	32e 32b- 32dd- 32eeJkk	.	.
=36	=36	=36	=36
16AA-LL	8e (8ee	4.cc	.
16A-	.	.	.
16c	4f 4ff)	.	.
16A-JJ	.	.	.
16AA-LL	.	.	.
16A-	.	.	.
16c	8e-' 8f#' (8ee-'L	4.r	f
16A-JJ	.	.	.
16AA-LL	8d' 8f#' 8dd'	.	.
16A-	.	.	.
16AA-	8c 8f# 8ccJ)	.	.
16A-JJ	.	.	.
*	*v	*v	*
=37	=37	=37
2GGG 2GG	2G 2g	f
8.GGG 8.GGL	8.G 8.gL	.
16GGG 16GGJk	16G 16gJk	.
=38	=38	=38
4FFF# 4FF#	4F# 4f#	.
4r	8eee-	pp
.	8r	.
4r	8eee-	.
.	8r	.
=39	=39	=39
2GGG 2GG	2G 2g	p
(8.AAA- 8.AA-L	(8.A- 8.a-L	.
16GGG) 16GGJk	16G) 16gJk	.
!!LO:LB:g=original
=40	=40	=40
4FFF# 4FF#	4F# 4f#	.
4r	8eee-	pp
.	8r	.
4r	8eee-	.
.	8r	.
=41	=41	=41
4FFFn 4FFn	4r	pp
4r	4eee-	pp
4r	4eee-	.
*clefG2	*	*
=42	=42	=42
4B- 4f (4b-	4dd (4ddd	.
8c 8f 8a)	8ee- 8eee-)	.
8r	8r	.
4r	4r	.
=43	=43	=43
*	*^	*
4A 4f (4a	(8.fffL	4ee-	.
.	16cccJk	.	.
8B- 8f 8b-)	8ddd)	8dd	.
8r	4.r	8r	.
4r	.	4r	.
*clefF4	*	*	*
=44	=44	=44	=44
4Bn (4d	(8.ggL	[4g	>
.	16ddJk	.	.
8c 8e-)	8ee-)	8g]	.
8r	4.r	8r	.
4r	.	4r	.
*clefG2	*	*	*
*	*v	*v	*
=45	=45	=45
8..ggL	4r	.
32ddJkk	.	.
8..ee-L	8..ggL	.
32bJkk	32ddJkk	.
8..ccL	8..ee- 8..eee-L	.
32gJkk	32bn 32bbnJkk	.
!!LO:LB:g=original
=46	=46	=46
8..a-L	8..cc 8..cccL	.
32enJkk	32g 32ggJkk	.
8..fL	8..a- 8..aa-L	.
32e- 32fJkk	32a- 32aa-Jkk	.
8..d 8..fL	8..a- 8..aa-L	.
32c 32e-Jkk	32a- 32aa-Jkk	.
=47	=47	=47
*	*^	*
8Bn 8d	(8.aa-L	8a-	f
8r	.	8r	.
.	16ffJk	.	.
4r	16dd'LL)	2r	.
.	16r	.	.
.	16bn'	.	p
.	16r	.	.
4r	16a-'	.	.
.	16r	.	.
.	16f'JJ	.	.
.	16r	.	.
*	*v	*v	*
=48	=48	=48
4r	16dLL	.
.	16r	.
.	16Bn	.
.	16r	.
8r	16A-JJ	.
.	16r	.
*clefF4	*	*
16FLL	8r	.
16r	.	.
16D	4r	.
16r	.	.
16BBnJJ	.	.
16r	.	.
=49	=49	=49
*^	*	*
8r	16AA-	8r	.
.	16r	.	.
(8FL	8FFL	8r	.
8D	8DD	2r	.
8BBn	8BBBn	.	.
8AA-	8AAA-	.	.
8GGJ)	8GGGJ	.	.
*v	*v	*	*
=50	=50	=50
4FFF# 4FF#	8r	.
.	8c 8d 8an	pp
4GGG 4GG	8r	.
.	8c 8d 8g	.
4GGG 4GG	8r	.
.	8B 8d 8fn	.
!!LO:LB:g=original
=51	=51	=51
4CC 4GG (4C	4G 4c (4e	.
8BBB 8GG 8BB)	8G 8d 8f)	.
8r	8r	.
4r	4r	.
=52	=52	=52
*	*^	*
4BBB 4GG (4BB	(8.gL	4G	>
.	16dJk	.	.
8CC 8GG 8C)	8e)	8G	.
8r	8r	4.r	.
4r	4r	.	.
*	*v	*v	*
=53	=53	=53
*^	*	*
4E 4G	4CC (4C	4c (4e	.
8D 8A	8FFF# 8FF#)	8d)	.
4.r	8r	8r	.
.	4r	4r	.
=54	=54	=54	=54
4D	4FFF# 4FF#	(8.dL	.
.	.	16AJk)	.
2D 2G	2FFFn 2FFn	(4.c	.
.	.	8B)	.
=55	=55	=55	=55
4E 4G	(4EE	(4c	.
4F 4G 4B	4DD 4D	4d	.
4G	4CC) 4C	4c 4e)	.
=56	=56	=56	=56
2A	2.FFF 2.FF	4G (4e	.
.	.	4F 4d	.
4r	.	4E 4A 4c)	.
=57	=57	=57	=57
8An	2.GGG 2.GG	[2D [2B	.
4A-	.	.	.
8GL	.	.	.
8F#	.	8D] 8BL]	.
8D 8FnJ	.	8BJ	.
!!LO:LB:g=original
=58	=58	=58	=58
(4GG	4.CC	4F 4B (4d	.
8C)	.	8E 8c)	.
8r	4.r	8r	.
4r	.	8.r	.
.	.	16c	.
*v	*v	*	*
=59	=59	=59
4r	(8.gL	.
.	16f#Jk)	.
4AA 4D 4A	4c 4f# 4dd	.
4AA 4D 4A	4c 4f# 4dd	.
=60	=60	=60
2GG 2D 2B	4d 4g 4b 4dd	.
.	(8.ggL	.
.	16cc#Jk	.
4r	24eeLL	.
.	24dd	.
.	24a#JJ	.
.	24ccnLL	.
.	24b	.
.	24gJJ)	.
=61	=61	=61
4r	(8.gL)	.
.	16f#Jk)	<
4AA 4D 4A	4c 4f# 4dd	.
4AA 4D 4A	4c 4f# 4dd	>
=62	=62	=62
2GG 2D 2B	4d 4g 4b 4dd	.
.	(8.bbL	.
.	16ff#Jk	.
4r	24aaLL	.
.	24gg	.
.	24cc#JJ	.
.	48eeLLL	.
.	48dd	.
.	48a#	.
.	48ccn	.
.	48b	.
.	48gJJJ)	.
!!LO:LB:g=original
=63	=63	=63
*	*^	*
4r	(8.gL)	4r	.
.	16f#Jk)	.	.
4AA 4D 4A	8dd	4c 4f#	<
.	4dd	.	.
4AA- 4D 4A-	.	4c 4fn	.
.	[8dd	.	.
*	*v	*v	*
=64	=64	=64
8GG 8BB 8D 8F 8G	8dd]	f
8r	[8ff)	.
8G 8B 8d 8f	16ff]	.
.	48r	.
.	(48ffLLL	.
.	48eeJJJ	.
8r	16dd)	.
.	48r	.
.	(48ddLLL	.
.	48ccJJJ	.
4r	16b)	.
.	48r	.
.	(48bLLL	.
.	48aJJJ	.
.	16g)	.
.	48r	.
.	(48gLLL	.
.	48fJJJ)	.
=65	=65	=65
4CC (4C	4G (4e	.
8BBB 8D)	8G 8f)	.
8r	16r	.
.	(16gg	.
4r	16ff#LL	.
.	16gg	.
.	16aa	.
.	16ggJJ)	.
=66	=66	=66
*	*^	*
4BBB 4GG (4BB	(8.gL	4G	.
.	16dJk	.	.
8CC 8GG 8C)	8e)	8G	.
8r	4.r	16r	.
.	.	16g (16gg	<
4r	.	16f# 16ff#LL	.
.	.	16g 16gg	>
.	.	16a 16aa	.
.	.	16g 16ggJJ)	.
!!LO:LB:g=original
=67	=67	=67	=67
*^	*	*	*
4r	4CC# 4AA 4C#	8.aL	4A	.
.	.	16eJk	.	.
16r	8DD 8D	8.fL	2r	.
16FLK	.	.	.	.
[8B-J	8r	.	.	.
.	.	(32b-LL	.	.
.	.	32aJJJ	.	.
16.B-LL]	4E	8.gL)	.	.
32GJk	.	.	.	.
[8cJ	.	.	.	.
.	.	(32ccLL	.	.
.	.	32b-JJJ	.	.
*	*	*v	*v	*
=68	=68	=68	=68
16.cLL]	8FL	8.aL)	.
32AJk	.	.	.
[8dJ	8F#J	.	.
.	.	(32ddLL	.
.	.	32ccJJJ	.
16.dLL]	8G	8bn)	.
32ck	.	.	.
16.Bn	4G#	4fn (4ffn	.
32cJJk	.	.	.
16.dLL	.	.	.
32Bk	.	.	.
16.c	8A	8e 8ee)	.
32cJJk	.	.	.
*v	*v	*	*
=69	=69	=69
*	*^	*
4F#	8r	4c 4d	pp
.	16.r	.	.
.	32a	.	.
4G	8..gL	4c 4e	.
.	32gkk	.	.
4GGG 4GG	8..g	4Fn 4B 4d	.
.	32gJkk	.	.
*	*v	*v	*
=70	=70	=70
4BBB- 4BB-	4E 4G 4c#	.
8r	8r	.
16AAA'' 16AA''	16E` 16G` 16c#`	ff
16r	16r	.
16DD'' 16AA'' 16D''	16F` 16A` 16d`	.
16r	16r	.
16CC#'' 16AA'' 16C#''	16E` 16A` 16e`	.
16r	16r	.
!!LO:LB:g=original
=71	=71	=71
4r	4r	.
8r	8r	.
16CC#'' 16AA'' 16C#''	16E` 16A` 16e`	ff
16r	16r	.
16DD'' 16AA'' 16D''	16F` 16A` 16d` 16f`	.
16r	16r	.
16CCn'' 16Cn''	16G` 16cn` 16e` 16g`	.
16r	16r	.
=72	=72	=72
4r	4r	.
8r	8r	.
8CC 8CL	8G 8c 8e (8gL	pp
8FF 8C 8F	8A 8c 8f 8a	.
8GG 8C 8GJ	8c 8e 8gJ	.
=73	=73	=73
*^	*	*
4r	8AA 8C 8AL	8c 8f#L	.
.	8AA- 8C 8A-J	8c 8f# 8ddJ	.
8C 8E 8GL	4GG	4ee	f
8C 8E 8G	.	.	.
8D 8F 8G	4GG	16ggLL	.
.	.	16ff	.
8D 8F 8GJ	.	16dd	.
.	.	16bJJ	.
=74	=74	=74	=74
4.E 4.G	4C	16cc)	.
.	.	16gLL	p
.	.	16gg	.
.	.	16gg'JJ	.
.	4C	16r	.
.	.	16gLL	.
8E 8GL	.	16gg	.
.	.	16gg'JJ	.
8E (8G	4C	16r	.
.	.	(16gLL	.
8cJ)	.	16gg)	.
.	.	16gg'JJ	.
=75	=75	=75	=75
(4c	2D 2F 2G	16r	.
.	.	(16gLL	>
.	.	16gg)	.
.	.	16gg'JJ	.
4B)	.	16r	.
.	.	(16gLL	.
.	.	16gg)	.
.	.	16gg'JJ	.
(8.c#L	4E 4G	16r	.
.	.	16g (16aLL	.
.	.	16gg 16aa)	.
16eJk)	.	16gg' 16aa'JJ	.
!!LO:LB:g=original
=76	=76	=76	=76
4c# (4e	2F 2A	16r	.
.	.	(16aLL	.
.	.	16aa)	.
.	.	16aa'JJ	.
4d)	.	16r	.
.	.	(16aLL	.
.	.	16aa)	.
.	.	16b-' 16bb-'JJ	.
(8.eL	4G 4B- 4cn	16r	.
.	.	(16ccLL	.
.	.	16bb- 16ccc)	.
16gJk	.	16bb-' 16ccc'JJ	.
*v	*v	*	*
=77	=77	=77
4A 4c) 4g	16r	.
.	16ccLL	f
.	16ccc	.
.	16ccc'JJ	ff
8..A- 8..c 8..fL	16r	.
.	16cc 16ddLL	.
.	16ccc 16ddd	.
.	16ccc' 16ddd'JJ	ff
32A- 32c 32fJkk	.	.
8..A- 8..c 8..d 8..f#L	16r	.
.	16cc 16ddLL	.
.	16ccc 16ddd	.
.	16ccc' 16ddd'JJ	.
32A- 32c 32d 32f#Jkk	.	.
=78	=78	=78
8G 8B 8d 8g	8bb 8ddd	.
8r	8g	p
4r	(8g'L	.
.	8g'	.
4r	8g'	.
.	8g'J)	.
=79	=79	=79
*	*^	*
(8.fL	(8.bL	8gL	.
.	.	8g'	.
16dJk	16ddJk	.	.
8e)	8cc)	8g'	.
8r	8r	8g'	.
4r	4r	8g'	.
.	.	8gJ	.
!!LO:LB:g=original
=80	=80	=80	=80
(8.dL	(8.ffL	8gL	.
.	.	8g'	.
16BJk	16ddJk	.	.
8c)	8ee)	8gJ	.
(8G'L	8r	4.r	.
8G'	4r	.	.
8G'J)	.	.	.
*	*v	*v	*
=81	=81	=81
*^	*	*
(8GL	8.FL	8.b (8.bbL	.
8G'	.	.	.
.	16DJk	16dd 16dddJk	.
8G'	8E	8cc 8ccc)	.
8G'	8r	8r	.
8G'	4r	4r	.
8GJ)	.	.	.
=82	=82	=82	=82
8G'L	8.DL	8.ff (8.fffL	.
8G	.	.	.
.	16BBJk	16dd 16dddJk	.
8G'J	8C	8ee 8eeeL)	.
4.r	8r	8cc 8cccJ	.
.	8AA' 8A'	8r	.
.	8r	8a' (8aa'	pp
*v	*v	*	*
=83	=83	=83
8AA-' 8A-'	8r	.
8r	8a-' 8aa-'	.
8GG' 8G'	8r	.
8r	8g' 8gg')	.
8GGG 8GG	8r	.
8r	8d 8f (8b	.
=84	=84	=84
*^	*^	*
4r	8CC 8GG	8cc	8e	.
.	4.C	[8eee)	8r	<
8E (8GL	.	(8eeeL]	8ggL	.
8c	.	16dddL	8ee	.
.	.	16cccJJ	.	.
8d	4G	16cccLL	8ff	<
.	.	16bb	.	.
8fJ)	.	16aa	8ddJ	.
.	.	16bbJJ)	.	.
!!LO:LB:g=original
=85	=85	=85	=85	=85
4r	8CC 8GG	8cccL	8ee	.
.	4.C	[8eeeJ	8r	<
8E (8GL	.	(8eeeL]	8ggL	.
8c	.	16dddL	8ee	.
.	.	16cccJJ	.	.
8d)	4G	16cccLL	8ff	>
.	.	16bb	.	.
8fJ	.	16aa	8ddJ	.
.	.	16bbJJ)	.	.
*v	*v	*	*	*
*	*v	*v	*
=86	=86	=86
[4c (4f	4dd (4ddd	pp
8c] 8e)	8cc 8ccc)	.
8CC (8CL	8r	.
8BBB 8BB	4r	.
8BBB- 8BB-J)	.	.
=87	=87	=87
2AAA (2AA	4G 4c# (4e	pp
.	8F 8d 8f)	.
.	8r	.
4AAA- 4AA-)	4r	.
=88	=88	=88
*^	*	*
4F (4B	2GGG 2GG	8.gL	.
.	.	16dJk	.
8E 8cn)	.	8e	.
4.r	.	8r	.
.	[4FFF# [4FF#	4r	.
=89	=89	=89	=89
2A	2FFF#] 2FF#]	4E (4e	.
.	.	4D [4d)	.
4r	4FFFn 4FFn	8D 8A 8d]	.
.	.	(32dLLL	.
.	.	32a	.
.	.	32f	.
.	.	32dJJJ)	pp
=90	=90	=90	=90
8D 8F 8B	8GGG 8GG	4r	.
8r	8r	.	.
8E 8c	8CC 8C	8r	.
8r	8r	8r	.
4r;	4r	4r;	.
*v	*v	*	*
==	==	==
*-	*-	*-
!!!RDF**kern: > = above
!!!RDF**kern: < = below
!!!verovio: beamFrenchStyle
!!!LOR: Durand 1915, plates 9327/9328, Paul Dukas, ed.
!!!PED: Dukas, Paul
!!!URL-vhv: https://verovio.humdrum.org/?file=beethoven/sonatas/sonata04-2.krn
!!!URL-pdf: https://github.com/craigsapp/beethoven-piano-sonatas/blob/master/reference-edition/sonata04-2.pdf
!!!ENC: Craig Stuart Sapp
!!!END: 2008/11/03
!!!ONB: some cleanup 2022/04/25
